ticatch-front/public/images/NormalCard.svg

<svg width="318" height="400" viewBox="0 0 318 400" fill="none" xmlns="http://www.w3.org/2000/svg"><g filter="url(#filter0_d_120_1947)"><rect x="1" width="309" height="392" rx="24" fill="#FFD371"/><g filter="url(#filter1_biiii_120_1947)"><rect width="309" height="392" rx="24" fill="#B3D5AC" fill-opacity=".109"/></g><path d="M93.0098 276.578V319h-7.6172l-18.6328-26.953h-.3516V319h-8.7891v-42.422h7.7344l18.5156 26.953h.4102v-26.953h8.7305Zm21.2692 43.067c-9.609 0-15.5856-6.622-15.5856-16.465 0-9.844 5.9766-16.407 15.5856-16.407 9.61 0 15.645 6.563 15.645 16.407 0 9.843-6.035 16.465-15.645 16.465Zm.059-6.739c4.453 0 6.738-4.16 6.738-9.726 0-5.625-2.285-9.785-6.738-9.785-4.512 0-6.856 4.16-6.856 9.785 0 5.566 2.344 9.726 6.856 9.726ZM135.373 319v-31.816h8.379v5.507h.352c1.171-3.925 4.101-5.976 7.675-5.976.879 0 1.992.117 2.754.293v7.734c-.82-.234-2.461-.469-3.691-.469-3.926 0-6.797 2.754-6.797 6.622V319h-8.672Zm23.379 0v-31.816h8.262v5.566h.351c1.348-3.691 4.571-5.977 8.848-5.977 4.394 0 7.617 2.286 8.672 5.977h.293c1.347-3.633 4.922-5.977 9.609-5.977 5.918 0 10.02 3.926 10.02 10.84V319h-8.672v-19.688c0-3.632-2.11-5.39-4.981-5.39-3.281 0-5.156 2.285-5.156 5.625V319h-8.437v-19.922c0-3.164-1.993-5.156-4.922-5.156-2.93 0-5.215 2.344-5.215 5.976V319h-8.672Zm51.211-8.906c0-7.09 5.742-9.434 11.836-9.785 2.285-.147 6.562-.352 7.91-.411v-2.578c-.059-2.636-1.875-4.218-5.098-4.218-2.929 0-4.804 1.347-5.273 3.515h-8.262c.528-5.508 5.332-9.844 13.77-9.844 6.914 0 13.476 3.106 13.476 10.782V319h-8.203v-4.395h-.234c-1.582 2.93-4.571 4.981-9.317 4.981-6.093 0-10.605-3.164-10.605-9.492Zm8.32-.235c0 2.461 1.992 3.75 4.746 3.75 3.926 0 6.739-2.636 6.68-5.976v-2.344c-1.318.059-5.01.264-6.504.41-2.988.293-4.922 1.699-4.922 4.16Zm35.332-33.281V319h-8.672v-42.422h8.672Z" fill="#F07167"/><circle cx="155" cy="160" r="88" fill="#FFF58B"/><g filter="url(#filter2_dii_120_1947)"><circle cx="155" cy="160" r="88" fill="url(#paint0_linear_120_1947)"/></g><g filter="url(#filter3_f_120_1947)"><path d="M111 165c0 9.389-7.611 17-17 17-9.3888 0-17-7.611-17-17s7.6112-17 17-17c9.389 0 17 7.611 17 17Z" fill="#F06" fill-opacity=".3"/></g><g filter="url(#filter4_f_120_1947)"><path d="M232 163c0 9.389-7.611 17-17 17s-17-7.611-17-17 7.611-17 17-17 17 7.611 17 17Z" fill="#F06" fill-opacity=".3"/></g></g><g filter="url(#filter5_df_120_1947)"><circle cx="188" cy="144" r="7" fill="#424242"/><circle cx="188" cy="144" r="6.5" stroke="#424242"/></g><g filter="url(#filter6_df_120_1947)"><circle cx="121" cy="144" r="7" fill="#424242"/><circle cx="121" cy="144" r="6.5" stroke="#424242"/></g><g filter="url(#filter7_df_120_1947)"><path d="M120 174.5c2 18 22.5 23.5 36.5 24C177 198.5 192 185 192 174" stroke="#424242" stroke-width="8" stroke-linecap="round"/></g><defs><filter id="filter0_d_120_1947" x="0" y="0" width="318" height="400" filterUnits="userSpaceOnUse" color-interpolation-filters="sRGB"><feFlood flood-opacity="0" result="BackgroundImageFix"/><feColorMatrix in="SourceAlpha" values="0 0 0 0 0 0 0 0 0 0 0 0 0 0 0 0 0 0 127 0" result="hardAlpha"/><feOffset dx="4" dy="4"/><feGaussianBlur stdDeviation="2"/><feComposite in2="hardAlpha" operator="out"/><feColorMatrix values="0 0 0 0 0 0 0 0 0 0 0 0 0 0 0 0 0 0 0.25 0"/><feBlend in2="BackgroundImageFix" result="effect1_dropShadow_120_1947"/><feBlend in="SourceGraphic" in2="effect1_dropShadow_120_1947" result="shape"/></filter><filter id="filter1_biiii_120_1947" x="-71.502" y="-71.502" width="452.004" height="535.004" filterUnits="userSpaceOnUse" color-interpolation-filters="sRGB"><feFlood flood-opacity="0" result="BackgroundImageFix"/><feGaussianBlur in="BackgroundImageFix" stdDeviation="35.751"/><feComposite in2="SourceAlpha" operator="in" result="effect1_backgroundBlur_120_1947"/><feBlend in="SourceGraphic" in2="effect1_backgroundBlur_120_1947" result="shape"/><feColorMatrix in="SourceAlpha" values="0 0 0 0 0 0 0 0 0 0 0 0 0 0 0 0 0 0 127 0" result="hardAlpha"/><feOffset dx="-9.34667" dy="9.34667"/><feGaussianBlur stdDeviation="4.67333"/><feComposite in2="hardAlpha" operator="arithmetic" k2="-1" k3="1"/><feColorMatrix values="0 0 0 0 0.561569 0 0 0 0 0.668235 0 0 0 0 0.539608 0 0 0 0.418 0"/><feBlend in2="shape" result="effect2_innerShadow_120_1947"/><feColorMatrix in="SourceAlpha" values="0 0 0 0 0 0 0 0 0 0 0 0 0 0 0 0 0 0 127 0" result="hardAlpha"/><feOffset dx="-4.67333" dy="4.67333"/><feGaussianBlur stdDeviation="2.33667"/><feComposite in2="hardAlpha" operator="arithmetic" k2="-1" k3="1"/><feColorMatrix values="0 0 0 0 1 0 0 0 0 1 0 0 0 0 1 0 0 0 0.418 0"/><feBlend in2="effect2_innerShadow_120_1947" result="effect3_innerShadow_120_1947"/><feColorMatrix in="SourceAlpha" values="0 0 0 0 0 0 0 0 0 0 0 0 0 0 0 0 0 0 127 0" result="hardAlpha"/><feOffset dx="9.34667" dy="-9.34667"/><feGaussianBlur stdDeviation="4.67333"/><feComposite in2="hardAlpha" operator="arithmetic" k2="-1" k3="1"/><feColorMatrix values="0 0 0 0 1 0 0 0 0 1 0 0 0 0 1 0 0 0 0.418 0"/><feBlend in2="effect3_innerShadow_120_1947" result="effect4_innerShadow_120_1947"/><feColorMatrix in="SourceAlpha" values="0 0 0 0 0 0 0 0 0 0 0 0 0 0 0 0 0 0 127 0" result="hardAlpha"/><feOffset dx="4.67333" dy="-4.67333"/><feGaussianBlur stdDeviation="2.33667"/><feComposite in2="hardAlpha" operator="arithmetic" k2="-1" k3="1"/><feColorMatrix values="0 0 0 0 0.561569 0 0 0 0 0.668235 0 0 0 0 0.539608 0 0 0 0.418 0"/><feBlend in2="effect4_innerShadow_120_1947" result="effect5_innerShadow_120_1947"/></filter><filter id="filter2_dii_120_1947" x="20.0667" y="48.5333" width="269.867" height="269.867" filterUnits="userSpaceOnUse" color-interpolation-filters="sRGB"><feFlood flood-opacity="0" result="BackgroundImageFix"/><feColorMatrix in="SourceAlpha" values="0 0 0 0 0 0 0 0 0 0 0 0 0 0 0 0 0 0 127 0" result="hardAlpha"/><feOffset dy="23.4667"/><feGaussianBlur stdDeviation="23.4667"/><feColorMatrix values="0 0 0 0 0.2 0 0 0 0 0.192431 0 0 0 0 0.109167 0 0 0 0.25 0"/><feBlend in2="BackgroundImageFix" result="effect1_dropShadow_120_1947"/><feBlend in="SourceGraphic" in2="effect1_dropShadow_120_1947" result="shape"/><feColorMatrix in="SourceAlpha" values="0 0 0 0 0 0 0 0 0 0 0 0 0 0 0 0 0 0 127 0" result="hardAlpha"/><feOffset dy="7.82222"/><feGaussianBlur stdDeviation="3.91111"/><feComposite in2="hardAlpha" operator="arithmetic" k2="-1" k3="1"/><feColorMatrix values="0 0 0 0 1 0 0 0 0 1 0 0 0 0 0.633167 0 0 0 1 0"/><feBlend in2="shape" result="effect2_innerShadow_120_1947"/><feColorMatrix in="SourceAlpha" values="0 0 0 0 0 0 0 0 0 0 0 0 0 0 0 0 0 0 127 0" result="hardAlpha"/><feOffset dy="-7.82222"/><feGaussianBlur stdDeviation="3.91111"/><feComposite in2="hardAlpha" operator="arithmetic" k2="-1" k3="1"/><feColorMatrix values="0 0 0 0 0.8 0 0 0 0 0.769722 0 0 0 0 0.436667 0 0 0 1 0"/><feBlend in2="effect2_innerShadow_120_1947" result="effect3_innerShadow_120_1947"/></filter><filter id="filter3_f_120_1947" x="57" y="128" width="74" height="74" filterUnits="userSpaceOnUse" color-interpolation-filters="sRGB"><feFlood flood-opacity="0" result="BackgroundImageFix"/><feBlend in="SourceGraphic" in2="BackgroundImageFix" result="shape"/><feGaussianBlur stdDeviation="10" result="effect1_foregroundBlur_120_1947"/></filter><filter id="filter4_f_120_1947" x="178" y="126" width="74" height="74" filterUnits="userSpaceOnUse" color-interpolation-filters="sRGB"><feFlood flood-opacity="0" result="BackgroundImageFix"/><feBlend in="SourceGraphic" in2="BackgroundImageFix" result="shape"/><feGaussianBlur stdDeviation="10" result="effect1_foregroundBlur_120_1947"/></filter><filter id="filter5_df_120_1947" x="177" y="136.5" width="22" height="22.5" filterUnits="userSpaceOnUse" color-interpolation-filters="sRGB"><feFlood flood-opacity="0" result="BackgroundImageFix"/><feColorMatrix in="SourceAlpha" values="0 0 0 0 0 0 0 0 0 0 0 0 0 0 0 0 0 0 127 0" result="hardAlpha"/><feOffset dy="4"/><feGaussianBlur stdDeviation="2"/><feComposite in2="hardAlpha" operator="out"/><feColorMatrix values="0 0 0 0 0 0 0 0 0 0 0 0 0 0 0 0 0 0 0.25 0"/><feBlend in2="BackgroundImageFix" result="effect1_dropShadow_120_1947"/><feBlend in="SourceGraphic" in2="effect1_dropShadow_120_1947" result="shape"/><feGaussianBlur stdDeviation=".25" result="effect2_foregroundBlur_120_1947"/></filter><filter id="filter6_df_120_1947" x="110" y="136.5" width="22" height="22.5" filterUnits="userSpaceOnUse" color-interpolation-filters="sRGB"><feFlood flood-opacity="0" result="BackgroundImageFix"/><feColorMatrix in="SourceAlpha" values="0 0 0 0 0 0 0 0 0 0 0 0 0 0 0 0 0 0 127 0" result="hardAlpha"/><feOffset dy="4"/><feGaussianBlur stdDeviation="2"/><feComposite in2="hardAlpha" operator="out"/><feColorMatrix values="0 0 0 0 0 0 0 0 0 0 0 0 0 0 0 0 0 0 0.25 0"/><feBlend in2="BackgroundImageFix" result="effect1_dropShadow_120_1947"/><feBlend in="SourceGraphic" in2="effect1_dropShadow_120_1947" result="shape"/><feGaussianBlur stdDeviation=".25" result="effect2_foregroundBlur_120_1947"/></filter><filter id="filter7_df_120_1947" x="112" y="169.5" width="88" height="41" filterUnits="userSpaceOnUse" color-interpolation-filters="sRGB"><feFlood flood-opacity="0" result="BackgroundImageFix"/><feColorMatrix in="SourceAlpha" values="0 0 0 0 0 0 0 0 0 0 0 0 0 0 0 0 0 0 127 0" result="hardAlpha"/><feOffset dy="4"/><feGaussianBlur stdDeviation="2"/><feComposite in2="hardAlpha" operator="out"/><feColorMatrix values="0 0 0 0 0 0 0 0 0 0 0 0 0 0 0 0 0 0 0.25 0"/><feBlend in2="BackgroundImageFix" result="effect1_dropShadow_120_1947"/><feBlend in="SourceGraphic" in2="effect1_dropShadow_120_1947" result="shape"/><feGaussianBlur stdDeviation=".25" result="effect2_foregroundBlur_120_1947"/></filter><linearGradient id="paint0_linear_120_1947" x1="155" y1="72" x2="155" y2="248" gradientUnits="userSpaceOnUse"><stop stop-color="#FFFF9C"/><stop offset="1" stop-color="#D6CE75"/></linearGradient></defs></svg>

<svg width="318" height="400" viewBox="0 0 318 400" fill="none" xmlns="http://www.w3.org/2000/svg">
<g filter="url(#filter0_d_120_1947)">
<rect x="1" width="309" height="392" rx="24" fill="#FFD371"/>
<g filter="url(#filter1_biiii_120_1947)">
<rect width="309" height="392" rx="24" fill="#B3D5AC" fill-opacity="0.109"/>
</g>
<path d="M93.0098 276.578V319H85.3926L66.7598 292.047H66.4082V319H57.6191V276.578H65.3535L83.8691 303.531H84.2793V276.578H93.0098ZM114.279 319.645C104.67 319.645 98.6934 313.023 98.6934 303.18C98.6934 293.336 104.67 286.773 114.279 286.773C123.889 286.773 129.924 293.336 129.924 303.18C129.924 313.023 123.889 319.645 114.279 319.645ZM114.338 312.906C118.791 312.906 121.076 308.746 121.076 303.18C121.076 297.555 118.791 293.395 114.338 293.395C109.826 293.395 107.482 297.555 107.482 303.18C107.482 308.746 109.826 312.906 114.338 312.906ZM135.373 319V287.184H143.752V292.691H144.104C145.275 288.766 148.205 286.715 151.779 286.715C152.658 286.715 153.771 286.832 154.533 287.008V294.742C153.713 294.508 152.072 294.273 150.842 294.273C146.916 294.273 144.045 297.027 144.045 300.895V319H135.373ZM158.752 319V287.184H167.014V292.75H167.365C168.713 289.059 171.936 286.773 176.213 286.773C180.607 286.773 183.83 289.059 184.885 292.75H185.178C186.525 289.117 190.1 286.773 194.787 286.773C200.705 286.773 204.807 290.699 204.807 297.613V319H196.135V299.312C196.135 295.68 194.025 293.922 191.154 293.922C187.873 293.922 185.998 296.207 185.998 299.547V319H177.561V299.078C177.561 295.914 175.568 293.922 172.639 293.922C169.709 293.922 167.424 296.266 167.424 299.898V319H158.752ZM209.963 310.094C209.963 303.004 215.705 300.66 221.799 300.309C224.084 300.162 228.361 299.957 229.709 299.898V297.32C229.65 294.684 227.834 293.102 224.611 293.102C221.682 293.102 219.807 294.449 219.338 296.617H211.076C211.604 291.109 216.408 286.773 224.846 286.773C231.76 286.773 238.322 289.879 238.322 297.555V319H230.119V314.605H229.885C228.303 317.535 225.314 319.586 220.568 319.586C214.475 319.586 209.963 316.422 209.963 310.094ZM218.283 309.859C218.283 312.32 220.275 313.609 223.029 313.609C226.955 313.609 229.768 310.973 229.709 307.633V305.289C228.391 305.348 224.699 305.553 223.205 305.699C220.217 305.992 218.283 307.398 218.283 309.859ZM253.615 276.578V319H244.943V276.578H253.615Z" fill="#F07167"/>
<circle cx="155" cy="160" r="88" fill="#FFF58B"/>
<g filter="url(#filter2_dii_120_1947)">
<circle cx="155" cy="160" r="88" fill="url(#paint0_linear_120_1947)"/>
</g>
<g filter="url(#filter3_f_120_1947)">
<path d="M111 165C111 174.389 103.389 182 94 182C84.6112 182 77 174.389 77 165C77 155.611 84.6112 148 94 148C103.389 148 111 155.611 111 165Z" fill="#FF0066" fill-opacity="0.3"/>
</g>
<g filter="url(#filter4_f_120_1947)">
<path d="M232 163C232 172.389 224.389 180 215 180C205.611 180 198 172.389 198 163C198 153.611 205.611 146 215 146C224.389 146 232 153.611 232 163Z" fill="#FF0066" fill-opacity="0.3"/>
</g>
</g>
<g filter="url(#filter5_df_120_1947)">
<circle cx="188" cy="144" r="7" fill="#424242"/>
<circle cx="188" cy="144" r="6.5" stroke="#424242"/>
</g>
<g filter="url(#filter6_df_120_1947)">
<circle cx="121" cy="144" r="7" fill="#424242"/>
<circle cx="121" cy="144" r="6.5" stroke="#424242"/>
</g>
<g filter="url(#filter7_df_120_1947)">
<path d="M120 174.5C122 192.5 142.5 198 156.5 198.5C177 198.5 192 185 192 174" stroke="#424242" stroke-width="8" stroke-linecap="round"/>
</g>
<defs>
<filter id="filter0_d_120_1947" x="0" y="0" width="318" height="400" filterUnits="userSpaceOnUse" color-interpolation-filters="sRGB">
<feFlood flood-opacity="0" result="BackgroundImageFix"/>
<feColorMatrix in="SourceAlpha" type="matrix" values="0 0 0 0 0 0 0 0 0 0 0 0 0 0 0 0 0 0 127 0" result="hardAlpha"/>
<feOffset dx="4" dy="4"/>
<feGaussianBlur stdDeviation="2"/>
<feComposite in2="hardAlpha" operator="out"/>
<feColorMatrix type="matrix" values="0 0 0 0 0 0 0 0 0 0 0 0 0 0 0 0 0 0 0.25 0"/>
<feBlend mode="normal" in2="BackgroundImageFix" result="effect1_dropShadow_120_1947"/>
<feBlend mode="normal" in="SourceGraphic" in2="effect1_dropShadow_120_1947" result="shape"/>
</filter>
<filter id="filter1_biiii_120_1947" x="-71.502" y="-71.502" width="452.004" height="535.004" filterUnits="userSpaceOnUse" color-interpolation-filters="sRGB">
<feFlood flood-opacity="0" result="BackgroundImageFix"/>
<feGaussianBlur in="BackgroundImageFix" stdDeviation="35.751"/>
<feComposite in2="SourceAlpha" operator="in" result="effect1_backgroundBlur_120_1947"/>
<feBlend mode="normal" in="SourceGraphic" in2="effect1_backgroundBlur_120_1947" result="shape"/>
<feColorMatrix in="SourceAlpha" type="matrix" values="0 0 0 0 0 0 0 0 0 0 0 0 0 0 0 0 0 0 127 0" result="hardAlpha"/>
<feOffset dx="-9.34667" dy="9.34667"/>
<feGaussianBlur stdDeviation="4.67333"/>
<feComposite in2="hardAlpha" operator="arithmetic" k2="-1" k3="1"/>
<feColorMatrix type="matrix" values="0 0 0 0 0.561569 0 0 0 0 0.668235 0 0 0 0 0.539608 0 0 0 0.418 0"/>
<feBlend mode="normal" in2="shape" result="effect2_innerShadow_120_1947"/>
<feColorMatrix in="SourceAlpha" type="matrix" values="0 0 0 0 0 0 0 0 0 0 0 0 0 0 0 0 0 0 127 0" result="hardAlpha"/>
<feOffset dx="-4.67333" dy="4.67333"/>
<feGaussianBlur stdDeviation="2.33667"/>
<feComposite in2="hardAlpha" operator="arithmetic" k2="-1" k3="1"/>
<feColorMatrix type="matrix" values="0 0 0 0 1 0 0 0 0 1 0 0 0 0 1 0 0 0 0.418 0"/>
<feBlend mode="normal" in2="effect2_innerShadow_120_1947" result="effect3_innerShadow_120_1947"/>
<feColorMatrix in="SourceAlpha" type="matrix" values="0 0 0 0 0 0 0 0 0 0 0 0 0 0 0 0 0 0 127 0" result="hardAlpha"/>
<feOffset dx="9.34667" dy="-9.34667"/>
<feGaussianBlur stdDeviation="4.67333"/>
<feComposite in2="hardAlpha" operator="arithmetic" k2="-1" k3="1"/>
<feColorMatrix type="matrix" values="0 0 0 0 1 0 0 0 0 1 0 0 0 0 1 0 0 0 0.418 0"/>
<feBlend mode="normal" in2="effect3_innerShadow_120_1947" result="effect4_innerShadow_120_1947"/>
<feColorMatrix in="SourceAlpha" type="matrix" values="0 0 0 0 0 0 0 0 0 0 0 0 0 0 0 0 0 0 127 0" result="hardAlpha"/>
<feOffset dx="4.67333" dy="-4.67333"/>
<feGaussianBlur stdDeviation="2.33667"/>
<feComposite in2="hardAlpha" operator="arithmetic" k2="-1" k3="1"/>
<feColorMatrix type="matrix" values="0 0 0 0 0.561569 0 0 0 0 0.668235 0 0 0 0 0.539608 0 0 0 0.418 0"/>
<feBlend mode="normal" in2="effect4_innerShadow_120_1947" result="effect5_innerShadow_120_1947"/>
</filter>
<filter id="filter2_dii_120_1947" x="20.0667" y="48.5333" width="269.867" height="269.867" filterUnits="userSpaceOnUse" color-interpolation-filters="sRGB">
<feFlood flood-opacity="0" result="BackgroundImageFix"/>
<feColorMatrix in="SourceAlpha" type="matrix" values="0 0 0 0 0 0 0 0 0 0 0 0 0 0 0 0 0 0 127 0" result="hardAlpha"/>
<feOffset dy="23.4667"/>
<feGaussianBlur stdDeviation="23.4667"/>
<feColorMatrix type="matrix" values="0 0 0 0 0.2 0 0 0 0 0.192431 0 0 0 0 0.109167 0 0 0 0.25 0"/>
<feBlend mode="normal" in2="BackgroundImageFix" result="effect1_dropShadow_120_1947"/>
<feBlend mode="normal" in="SourceGraphic" in2="effect1_dropShadow_120_1947" result="shape"/>
<feColorMatrix in="SourceAlpha" type="matrix" values="0 0 0 0 0 0 0 0 0 0 0 0 0 0 0 0 0 0 127 0" result="hardAlpha"/>
<feOffset dy="7.82222"/>
<feGaussianBlur stdDeviation="3.91111"/>
<feComposite in2="hardAlpha" operator="arithmetic" k2="-1" k3="1"/>
<feColorMatrix type="matrix" values="0 0 0 0 1 0 0 0 0 1 0 0 0 0 0.633167 0 0 0 1 0"/>
<feBlend mode="normal" in2="shape" result="effect2_innerShadow_120_1947"/>
<feColorMatrix in="SourceAlpha" type="matrix" values="0 0 0 0 0 0 0 0 0 0 0 0 0 0 0 0 0 0 127 0" result="hardAlpha"/>
<feOffset dy="-7.82222"/>
<feGaussianBlur stdDeviation="3.91111"/>
<feComposite in2="hardAlpha" operator="arithmetic" k2="-1" k3="1"/>
<feColorMatrix type="matrix" values="0 0 0 0 0.8 0 0 0 0 0.769722 0 0 0 0 0.436667 0 0 0 1 0"/>
<feBlend mode="normal" in2="effect2_innerShadow_120_1947" result="effect3_innerShadow_120_1947"/>
</filter>
<filter id="filter3_f_120_1947" x="57" y="128" width="74" height="74" filterUnits="userSpaceOnUse" color-interpolation-filters="sRGB">
<feFlood flood-opacity="0" result="BackgroundImageFix"/>
<feBlend mode="normal" in="SourceGraphic" in2="BackgroundImageFix" result="shape"/>
<feGaussianBlur stdDeviation="10" result="effect1_foregroundBlur_120_1947"/>
</filter>
<filter id="filter4_f_120_1947" x="178" y="126" width="74" height="74" filterUnits="userSpaceOnUse" color-interpolation-filters="sRGB">
<feFlood flood-opacity="0" result="BackgroundImageFix"/>
<feBlend mode="normal" in="SourceGraphic" in2="BackgroundImageFix" result="shape"/>
<feGaussianBlur stdDeviation="10" result="effect1_foregroundBlur_120_1947"/>
</filter>
<filter id="filter5_df_120_1947" x="177" y="136.5" width="22" height="22.5" filterUnits="userSpaceOnUse" color-interpolation-filters="sRGB">
<feFlood flood-opacity="0" result="BackgroundImageFix"/>
<feColorMatrix in="SourceAlpha" type="matrix" values="0 0 0 0 0 0 0 0 0 0 0 0 0 0 0 0 0 0 127 0" result="hardAlpha"/>
<feOffset dy="4"/>
<feGaussianBlur stdDeviation="2"/>
<feComposite in2="hardAlpha" operator="out"/>
<feColorMatrix type="matrix" values="0 0 0 0 0 0 0 0 0 0 0 0 0 0 0 0 0 0 0.25 0"/>
<feBlend mode="normal" in2="BackgroundImageFix" result="effect1_dropShadow_120_1947"/>
<feBlend mode="normal" in="SourceGraphic" in2="effect1_dropShadow_120_1947" result="shape"/>
<feGaussianBlur stdDeviation="0.25" result="effect2_foregroundBlur_120_1947"/>
</filter>
<filter id="filter6_df_120_1947" x="110" y="136.5" width="22" height="22.5" filterUnits="userSpaceOnUse" color-interpolation-filters="sRGB">
<feFlood flood-opacity="0" result="BackgroundImageFix"/>
<feColorMatrix in="SourceAlpha" type="matrix" values="0 0 0 0 0 0 0 0 0 0 0 0 0 0 0 0 0 0 127 0" result="hardAlpha"/>
<feOffset dy="4"/>
<feGaussianBlur stdDeviation="2"/>
<feComposite in2="hardAlpha" operator="out"/>
<feColorMatrix type="matrix" values="0 0 0 0 0 0 0 0 0 0 0 0 0 0 0 0 0 0 0.25 0"/>
<feBlend mode="normal" in2="BackgroundImageFix" result="effect1_dropShadow_120_1947"/>
<feBlend mode="normal" in="SourceGraphic" in2="effect1_dropShadow_120_1947" result="shape"/>
<feGaussianBlur stdDeviation="0.25" result="effect2_foregroundBlur_120_1947"/>
</filter>
<filter id="filter7_df_120_1947" x="112" y="169.5" width="88" height="41" filterUnits="userSpaceOnUse" color-interpolation-filters="sRGB">
<feFlood flood-opacity="0" result="BackgroundImageFix"/>
<feColorMatrix in="SourceAlpha" type="matrix" values="0 0 0 0 0 0 0 0 0 0 0 0 0 0 0 0 0 0 127 0" result="hardAlpha"/>
<feOffset dy="4"/>
<feGaussianBlur stdDeviation="2"/>
<feComposite in2="hardAlpha" operator="out"/>
<feColorMatrix type="matrix" values="0 0 0 0 0 0 0 0 0 0 0 0 0 0 0 0 0 0 0.25 0"/>
<feBlend mode="normal" in2="BackgroundImageFix" result="effect1_dropShadow_120_1947"/>
<feBlend mode="normal" in="SourceGraphic" in2="effect1_dropShadow_120_1947" result="shape"/>
<feGaussianBlur stdDeviation="0.25" result="effect2_foregroundBlur_120_1947"/>
</filter>
<linearGradient id="paint0_linear_120_1947" x1="155" y1="72" x2="155" y2="248" gradientUnits="userSpaceOnUse">
<stop stop-color="#FFFF9C"/>
<stop offset="1" stop-color="#D6CE75"/>
</linearGradient>
</defs>
</svg>
